pix_core/e/resize.svg

<!DOCTYPE svg PUBLIC "-//W3C//DTD SVG 1.1//EN" "http://www.w3.org/Graphics/SVG/1.1/DTD/svg11.dtd" [
	<!ENTITY ns_flows "http://ns.adobe.com/Flows/1.0/">
]><svg xmlns="http://www.w3.org/2000/svg" width="16" height="16" viewBox="-2 -2 16 16" preserveAspectRatio="xMinYMid meet" overflow="visible" enable-background="new -2 -2 16 16"><path d="M0 12h2v2H0v-2zm3-3h2v2H3V9zm0 3h2v2H3v-2zm3-6h2v2H6V6zm0 3h2v2H6V9zm0 3h2v2H6v-2zm3-9h2v2H9V3zm0 3h2v2H9V6zm0 3h2v2H9V9zm0 3h2v2H9v-2zm3-12h2v2h-2V0zm0 3h2v2h-2V3zm0 3h2v2h-2V6zm0 3h2v2h-2V9zm0 3h2v2h-2v-2z" fill="#7575E0"/></svg>

<?xml version="1.0" encoding="utf-8"?>
<!-- Generator: Adobe Illustrator 15.1.0, SVG Export Plug-In  -->
<!DOCTYPE svg PUBLIC "-//W3C//DTD SVG 1.1//EN" "http://www.w3.org/Graphics/SVG/1.1/DTD/svg11.dtd" [
	<!ENTITY ns_flows "http://ns.adobe.com/Flows/1.0/">
]>
<svg version="1.1"
	 xmlns="http://www.w3.org/2000/svg" xmlns:xlink="http://www.w3.org/1999/xlink" xmlns:a="http://ns.adobe.com/AdobeSVGViewerExtensions/3.0/"
	 x="0px" y="0px" width="16px" height="16px" viewBox="-2 -2 16 16" style="overflow:visible;enable-background:new -2 -2 16 16;"
	 xml:space="preserve" preserveAspectRatio="xMinYMid meet">
<defs>
</defs>
<path style="fill:#7575E0;" d="M0,12h2v2H0V12z M3,9h2v2H3V9z M3,12h2v2H3V12z M6,6h2v2H6V6z M6,9h2v2H6V9z M6,12h2v2H6V12z M9,3h2
	v2H9V3z M9,6h2v2H9V6z M9,9h2v2H9V9z M9,12h2v2H9V12z M12,0h2v2h-2V0z M12,3h2v2h-2V3z M12,6h2v2h-2V6z M12,9h2v2h-2V9z M12,12h2v2
	h-2V12z"/>
</svg>
